docs/images/icons/samsung_pay.svg

<svg width="35" height="16" viewBox="0 0 35 16" fill="none" xmlns="http://www.w3.org/2000/svg">
<path id="samsung pay" d="M11.4942 8.486H13.2742C14.3472 8.486 15.1562 9.296 15.1562 10.308C15.1562 11.321 14.3622 12.145 13.2732 12.145H12.4652V13.606H11.4952V8.486H11.4942ZM12.4642 9.368V11.248H13.2002C13.7732 11.248 14.1702 10.828 14.1702 10.308C14.1702 9.788 13.7742 9.368 13.2002 9.368H12.4652H12.4642ZM15.4062 11.567C15.4062 10.207 16.4202 9.426 17.4792 9.426C18.0232 9.426 18.5232 9.657 18.8182 10.004V9.513H19.7742V13.621H18.8182V13.085C18.6518 13.2812 18.4445 13.4386 18.2107 13.5461C17.977 13.6535 17.7225 13.7085 17.4652 13.707C17.1891 13.7029 16.9166 13.6441 16.6633 13.5341C16.41 13.4241 16.181 13.265 15.9895 13.0661C15.798 12.8671 15.6478 12.6322 15.5475 12.3749C15.4472 12.1177 15.3989 11.8431 15.4052 11.567H15.4062ZM18.8622 11.552C18.8622 10.858 18.3322 10.294 17.6122 10.294C16.9062 10.294 16.3472 10.844 16.3472 11.552C16.3472 12.261 16.8912 12.825 17.6122 12.825C18.3322 12.825 18.8622 12.261 18.8622 11.552ZM21.8772 13.404L20.1702 9.498H21.2002L22.3622 12.261L23.4652 9.498H24.4792L21.9942 15.501H21.0242L21.8762 13.404H21.8772ZM2.14123 1.875C2.11843 1.79458 2.11843 1.70942 2.14123 1.629C2.17123 1.47 2.27323 1.311 2.58223 1.311C2.86223 1.311 3.03823 1.485 3.03823 1.745V2.035H4.24423V1.701C4.24423 0.659 3.28823 0.5 2.59723 0.5C1.72923 0.5 1.02323 0.775 0.891229 1.57C0.861229 1.787 0.847229 1.975 0.906229 2.221C1.11223 3.205 2.84723 3.48 3.09723 4.101C3.14123 4.217 3.12723 4.362 3.11223 4.449C3.06823 4.608 2.96523 4.767 2.64223 4.767C2.33223 4.767 2.15623 4.593 2.15623 4.333V3.87H0.847229V4.232C0.847229 5.302 1.70023 5.621 2.61223 5.621C3.49423 5.621 4.21523 5.331 4.33223 4.521C4.39223 4.101 4.34723 3.841 4.33223 3.741C4.12623 2.728 2.28823 2.438 2.14223 1.874L2.14123 1.875ZM17.9652 1.89C17.9503 1.80868 17.9503 1.72532 17.9652 1.644C17.9952 1.484 18.0972 1.325 18.4052 1.325C18.6852 1.325 18.8472 1.499 18.8472 1.759V2.049H20.0532V1.716C20.0532 0.689001 19.1122 0.53 18.4352 0.53C17.5822 0.53 16.8762 0.805 16.7452 1.586C16.7152 1.803 16.7002 1.991 16.7592 2.222C16.9652 3.192 18.6852 3.466 18.9212 4.088C18.9652 4.204 18.9502 4.348 18.9352 4.435C18.8912 4.595 18.7882 4.754 18.4652 4.754C18.1552 4.754 17.9792 4.58 17.9792 4.32V3.857H16.6852V4.218C16.6852 5.274 17.5232 5.593 18.4352 5.593C19.3032 5.593 20.0232 5.303 20.1412 4.508C20.2002 4.103 20.1562 3.828 20.1262 3.727C19.9202 2.743 18.0972 2.439 17.9652 1.89ZM29.0092 4.493L27.8622 0.646H26.0522V5.376H27.2442L27.1712 1.398L28.4062 5.376H30.1412V0.646H28.9352L29.0092 4.493ZM6.05323 0.646L5.15623 5.433H6.46523L7.14123 1.007L7.80323 5.433H9.11223L8.21523 0.646H6.05323ZM13.4062 0.646L12.7882 4.392L12.1702 0.646H10.2002L10.0972 5.433H11.3172L11.3472 1.007L12.1852 5.433H13.4212L14.2592 1.007L14.2892 5.433H15.5092L15.4062 0.646H13.4062ZM24.7002 0.646H23.4652V4.189C23.4652 4.247 23.4652 4.319 23.4502 4.378C23.4264 4.4825 23.3658 4.57498 23.2796 4.63865C23.1933 4.70232 23.0871 4.73296 22.9802 4.725C22.6412 4.725 22.5382 4.493 22.5092 4.378C22.4942 4.32 22.4942 4.262 22.4942 4.19V0.645H21.2592V4.073C21.2592 4.16 21.2592 4.348 21.2742 4.391C21.3622 5.288 22.0682 5.577 22.9642 5.577C23.8622 5.577 24.5822 5.287 24.6562 4.391C24.6562 4.348 24.6702 4.16 24.6702 4.073V0.646H24.7002ZM33.1562 2.743V3.437H33.6562V4.132C33.6562 4.19 33.6562 4.262 33.6412 4.32C33.6262 4.45 33.4942 4.667 33.1412 4.667C32.7882 4.667 32.6712 4.45 32.6412 4.32C32.6262 4.262 32.6262 4.204 32.6262 4.132V1.947C32.6262 1.875 32.6262 1.788 32.6412 1.716C32.6712 1.6 32.7742 1.369 33.1262 1.369C33.4942 1.369 33.5972 1.615 33.6122 1.716C33.6262 1.788 33.6262 1.904 33.6262 1.904V2.164H34.8472V2.005C34.8472 2.005 34.8472 1.846 34.8322 1.687C34.7442 0.791 33.9942 0.501 33.1272 0.501C32.2602 0.501 31.5242 0.791 31.4212 1.687C31.4047 1.79226 31.395 1.89848 31.3922 2.005V4.015C31.3922 4.103 31.3922 4.175 31.4072 4.335C31.4802 5.202 32.2602 5.52 33.1132 5.52C33.9802 5.52 34.7452 5.216 34.8192 4.334C34.8332 4.175 34.8332 4.103 34.8332 4.016V2.743H33.1572H33.1562Z" fill="#B2B2B2"/>
</svg>

<svg width="35" height="16" fill="none" xmlns="http://www.w3.org/2000/svg"><path d="M11.494 8.486h1.78c1.073 0 1.882.81 1.882 1.822 0 1.013-.794 1.837-1.883 1.837h-.808v1.461h-.97v-5.12Zm.97.882v1.88h.736c.573 0 .97-.42.97-.94s-.396-.94-.97-.94h-.735Zm2.942 2.199c0-1.36 1.014-2.141 2.073-2.141.544 0 1.044.231 1.34.578v-.491h.955v4.108h-.956v-.536a1.761 1.761 0 0 1-1.353.622 2.091 2.091 0 0 1-2.06-2.14h.001Zm3.456-.015c0-.694-.53-1.258-1.25-1.258-.706 0-1.265.55-1.265 1.258 0 .709.544 1.273 1.265 1.273.72 0 1.25-.564 1.25-1.273Zm3.015 1.852L20.17 9.498h1.03l1.162 2.763 1.103-2.763h1.014l-2.485 6.003h-.97l.852-2.097h.001ZM2.141 1.875a.45.45 0 0 1 0-.246c.03-.159.132-.318.441-.318.28 0 .456.174.456.434v.29h1.206v-.334C4.244.659 3.288.5 2.597.5 1.73.5 1.023.775.891 1.57c-.03.217-.044.405.015.651.206.984 1.941 1.259 2.191 1.88.044.116.03.261.015.348-.044.159-.147.318-.47.318-.31 0-.486-.174-.486-.434V3.87H.847v.362c0 1.07.853 1.389 1.765 1.389.882 0 1.603-.29 1.72-1.1.06-.42.015-.68 0-.78-.206-1.013-2.044-1.303-2.19-1.867v.001Zm15.824.015a.683.683 0 0 1 0-.246c.03-.16.132-.319.44-.319.28 0 .442.174.442.434v.29h1.206v-.333c0-1.027-.94-1.186-1.618-1.186-.853 0-1.559.275-1.69 1.056-.03.217-.045.405.014.636.206.97 1.926 1.244 2.162 1.866.044.116.03.26.014.347-.044.16-.147.319-.47.319-.31 0-.486-.174-.486-.434v-.463h-1.294v.361c0 1.056.838 1.375 1.75 1.375.868 0 1.588-.29 1.706-1.085.06-.405.015-.68-.015-.781-.206-.984-2.029-1.288-2.16-1.837ZM29.01 4.493 27.862.646h-1.81v4.73h1.192l-.073-3.978 1.235 3.978h1.735V.646h-1.206l.074 3.847ZM6.053.646l-.897 4.787h1.31l.675-4.426.662 4.426h1.31L8.214.646H6.053Zm7.353 0-.618 3.746L12.17.646H10.2l-.103 4.787h1.22l.03-4.426.838 4.426h1.236l.838-4.426.03 4.426h1.22L15.406.646h-2Zm11.294 0h-1.235v3.543c0 .058 0 .13-.015.189a.448.448 0 0 1-.47.347c-.339 0-.442-.232-.47-.347-.016-.058-.016-.116-.016-.188V.645H21.26v3.428c0 .087 0 .275.015.318.088.897.794 1.186 1.69 1.186.898 0 1.618-.29 1.692-1.186 0-.043.014-.231.014-.318V.646h.03Zm8.456 2.097v.694h.5v.695c0 .058 0 .13-.015.188-.015.13-.147.347-.5.347s-.47-.217-.5-.347c-.015-.058-.015-.116-.015-.188V1.947c0-.072 0-.159.015-.231.03-.116.133-.347.485-.347.368 0 .471.246.486.347.014.072.014.188.014.188v.26h1.221v-.159s0-.159-.015-.318C34.744.791 33.994.501 33.127.501c-.867 0-1.603.29-1.706 1.186a2.473 2.473 0 0 0-.029.318v2.01c0 .088 0 .16.015.32.073.867.853 1.185 1.706 1.185.867 0 1.632-.304 1.706-1.186.014-.159.014-.231.014-.318V2.743h-1.676Z" fill="#B2B2B2"/></svg>
